icon/fa/van-shuttle.svg

<svg xmlns="http://www.w3.org/2000/svg" viewBox="0 0 640 512"><!--! Font Awesome Free 6.1.2 by @fontawesome - https://fontawesome.com License - https://fontawesome.com/license/free (Icons: CC BY 4.0, Fonts: SIL OFL 1.1, Code: MIT License) Copyright 2022 Fonticons, Inc.--><path d="M592 384h-16c0 53-43 96-96 96-53.9 0-96-43-96-96H256c0 53-43 96-96 96-53.9 0-96-43-96-96H48c-26.51 0-48-21.5-48-48V104c0-39.76 32.24-72 72-72h393.1c18 0 36.8 8.34 49 22.78l110 131.72c10.6 10.6 15.9 26.1 15.9 41.2V336c0 26.5-21.5 48-48 48zM64 192h96V96H72c-4.42 0-8 3.58-8 8v88zm481.1 0-80-96H384v96h161.1zM320 192V96h-96v96h96zm160 144c-26.5 0-48 21.5-48 48s21.5 48 48 48 48-21.5 48-48-21.5-48-48-48zm-320 96c26.5 0 48-21.5 48-48s-21.5-48-48-48-48 21.5-48 48 21.5 48 48 48z"/></svg>

<svg xmlns="http://www.w3.org/2000/svg" viewBox="0 0 640 512" height="1em" width="1em">
<!--! Font Awesome Free 6.1.2 by @fontawesome - https://fontawesome.com License - https://fontawesome.com/license/free (Icons: CC BY 4.0, Fonts: SIL OFL 1.1, Code: MIT License) Copyright 2022 Fonticons, Inc.-->
  <path d="M592 384H576C576 437 533 480 480 480C426.1 480 384 437 384 384H256C256 437 213 480 160 480C106.1 480 64 437 64 384H48C21.49 384 0 362.5 0 336V104C0 64.24 32.24 32 72 32H465.1C483.1 32 501.9 40.34 514.1 54.78L624.1 186.5C634.7 197.1 640 212.6 640 227.7V336C640 362.5 618.5 384 592 384zM64 192H160V96H72C67.58 96 64 99.58 64 104V192zM545.1 192L465.1 96H384V192H545.1zM320 192V96H224V192H320zM480 336C453.5 336 432 357.5 432 384C432 410.5 453.5 432 480 432C506.5 432 528 410.5 528 384C528 357.5 506.5 336 480 336zM160 432C186.5 432 208 410.5 208 384C208 357.5 186.5 336 160 336C133.5 336 112 357.5 112 384C112 410.5 133.5 432 160 432z"/>
</svg>
